img/who_we_are_icn_awards.svg

<svg fill="none" height="30" viewBox="0 0 27 30" width="27" xmlns="http://www.w3.org/2000/svg"><g fill="#427fe0"><path clip-rule="evenodd" d="m5.47072 10.0874c1.25925 2.6179 4.16056 4.7717 5.46138 5.6428v2.3332l-5.16771 3.1506h12.80051l-5.2071-3.1745v-2.3093c1.3008-.8714 4.2021-3.0252 5.4613-5.6431 4.2935-.45871 5.4544-5.73764 5.4544-8.59014 0-.680586-.543-1.232312-1.2129-1.232312h-21.83139c-.669838 0-1.2128526.551726-1.2128526 1.232312 0 2.8525 1.1608526 8.13143 5.4543626 8.59044zm13.95158-2.70629v-4.65075h2.332c-.1839 1.47585-.728 3.8462-2.332 4.65075zm-14.5541 0v-4.65075h-2.33202c.18375 1.47523.72787 3.8462 2.33202 4.65075z" fill-rule="evenodd"/><path d="m26.2214 21.362c-1.0348-.0011-1.8733-.7903-1.8744-1.7642 0-.3247-.2798-.588-.6248-.588-.3451 0-.6248.2633-.6248.588-.0012.9739-.8397 1.7631-1.8745 1.7642-.345 0-.6248.2633-.6248.588 0 .3248.2798.5881.6248.5881 1.0348.001 1.8733.7903 1.8745 1.7641 0 .3248.2797.5881.6248.5881.345 0 .6248-.2633.6248-.5881.0011-.9738.8396-1.7631 1.8744-1.7641.3451 0 .6248-.2633.6248-.5881 0-.3247-.2797-.588-.6248-.588z"/><path d="m23.7222 10.1897c-.3451 0-.6248.2633-.6248.5881-.0012.9739-.8397 1.7631-1.8745 1.7641-.345 0-.6248.2633-.6248.5881s.2798.5881.6248.5881c1.0348.001 1.8733.7902 1.8745 1.7641 0 .3248.2797.5881.6248.5881.345 0 .6248-.2633.6248-.5881.0011-.9739.8396-1.7631 1.8744-1.7641.3451 0 .6248-.2633.6248-.5881s-.2797-.5881-.6248-.5881c-1.0348-.001-1.8733-.7902-1.8744-1.7641 0-.3248-.2798-.5881-.6248-.5881z"/><path d="m6.26416 16.8041c0-.3247-.27973-.588-.6248-.588-1.03475-.0011-1.8733-.7903-1.87442-1.7642 0-.3247-.27973-.588-.6248-.588s-.62481.2633-.62481.588c-.00112.9739-.83967 1.7631-1.874412 1.7642-.34507 0-.6248047.2633-.6248047.588 0 .3248.2797347.5881.6248047.5881 1.034742.0011 1.873292.7903 1.874412 1.7642 0 .3247.27974.588.62481.588s.6248-.2633.6248-.588c.00112-.9739.83967-1.7631 1.87442-1.7642.34507 0 .6248-.2633.6248-.5881z"/><path d="m4.79395 28.4422c0 .6766.54849 1.2251 1.2251 1.2251h12.25105c.6766 0 1.2251-.5485 1.2251-1.2251v-6.1256h-14.70125z"/></g></svg>

<svg width="27" height="30" viewBox="0 0 27 30" fill="none" xmlns="http://www.w3.org/2000/svg">
<path fill-rule="evenodd" clip-rule="evenodd" d="M5.47072 10.0874C6.72997 12.7053 9.63128 14.8591 10.9321 15.7302V18.0634L5.76439 21.214H18.5649L13.3578 18.0395V15.7302C14.6586 14.8588 17.5599 12.705 18.8191 10.0871C23.1126 9.62839 24.2735 4.34946 24.2735 1.49696C24.2735 0.816374 23.7305 0.264648 23.0606 0.264648H1.22921C0.559372 0.264648 0.0163574 0.816374 0.0163574 1.49696C0.0163574 4.34946 1.17721 9.62839 5.47072 10.0874ZM19.4223 7.38111V2.73036H21.7543C21.5704 4.20621 21.0263 6.57656 19.4223 7.38111ZM4.8682 7.38111V2.73036H2.53618C2.71993 4.20559 3.26405 6.57656 4.8682 7.38111Z" fill="#427FE0"/>
<path d="M26.2214 21.362C25.1866 21.3609 24.3481 20.5717 24.347 19.5978C24.347 19.2731 24.0672 19.0098 23.7222 19.0098C23.3771 19.0098 23.0974 19.2731 23.0974 19.5978C23.0962 20.5717 22.2577 21.3609 21.2229 21.362C20.8779 21.362 20.5981 21.6253 20.5981 21.95C20.5981 22.2748 20.8779 22.5381 21.2229 22.5381C22.2577 22.5391 23.0962 23.3284 23.0974 24.3022C23.0974 24.627 23.3771 24.8903 23.7222 24.8903C24.0672 24.8903 24.347 24.627 24.347 24.3022C24.3481 23.3284 25.1866 22.5391 26.2214 22.5381C26.5665 22.5381 26.8462 22.2748 26.8462 21.95C26.8462 21.6253 26.5665 21.362 26.2214 21.362Z" fill="#427FE0"/>
<path d="M23.7222 10.1897C23.3771 10.1897 23.0974 10.453 23.0974 10.7778C23.0962 11.7517 22.2577 12.5409 21.2229 12.5419C20.8779 12.5419 20.5981 12.8052 20.5981 13.13C20.5981 13.4548 20.8779 13.7181 21.2229 13.7181C22.2577 13.7191 23.0962 14.5083 23.0974 15.4822C23.0974 15.807 23.3771 16.0703 23.7222 16.0703C24.0672 16.0703 24.347 15.807 24.347 15.4822C24.3481 14.5083 25.1866 13.7191 26.2214 13.7181C26.5665 13.7181 26.8462 13.4548 26.8462 13.13C26.8462 12.8052 26.5665 12.5419 26.2214 12.5419C25.1866 12.5409 24.3481 11.7517 24.347 10.7778C24.347 10.453 24.0672 10.1897 23.7222 10.1897Z" fill="#427FE0"/>
<path d="M6.26416 16.8041C6.26416 16.4794 5.98443 16.2161 5.63936 16.2161C4.60461 16.215 3.76606 15.4258 3.76494 14.4519C3.76494 14.1272 3.48521 13.8639 3.14014 13.8639C2.79507 13.8639 2.51533 14.1272 2.51533 14.4519C2.51421 15.4258 1.67566 16.215 0.640918 16.2161C0.295848 16.2161 0.0161133 16.4794 0.0161133 16.8041C0.0161133 17.1289 0.295848 17.3922 0.640918 17.3922C1.67566 17.3933 2.51421 18.1825 2.51533 19.1564C2.51533 19.4811 2.79507 19.7444 3.14014 19.7444C3.48521 19.7444 3.76494 19.4811 3.76494 19.1564C3.76606 18.1825 4.60461 17.3933 5.63936 17.3922C5.98443 17.3922 6.26416 17.1289 6.26416 16.8041Z" fill="#427FE0"/>
<path d="M4.79395 28.4422C4.79395 29.1188 5.34244 29.6673 6.01905 29.6673H18.2701C18.9467 29.6673 19.4952 29.1188 19.4952 28.4422V22.3166H4.79395L4.79395 28.4422Z" fill="#427FE0"/>
</svg>
